app/assets/images/heroicons/solid/underline.svg

<svg width="24" height="24" viewBox="0 0 24 24" fill="none" xmlns="http://www.w3.org/2000/svg">
<path fill-rule="evenodd" clip-rule="evenodd" d="M5.99509 2.99414C6.40931 2.99414 6.74511 3.32994 6.74511 3.74418V11.2449C6.74511 14.1448 9.09561 16.4954 11.995 16.4954C14.8943 16.4954 17.2448 14.1448 17.2448 11.2449V3.74418C17.2448 3.32994 17.5806 2.99414 17.9949 2.99414C18.4091 2.99414 18.7449 3.32994 18.7449 3.74418V11.2449C18.7449 14.9731 15.7229 17.9955 11.995 17.9955C8.26705 17.9955 5.24507 14.9731 5.24507 11.2449V3.74418C5.24507 3.32994 5.58087 2.99414 5.99509 2.99414ZM2.99512 20.2458C2.99512 19.8315 3.33091 19.4957 3.74514 19.4957H20.2448C20.659 19.4957 20.9948 19.8315 20.9948 20.2458C20.9948 20.66 20.659 20.9958 20.2448 20.9958H3.74514C3.33091 20.9958 2.99512 20.66 2.99512 20.2458Z" fill="black"/>
</svg>

<svg xmlns="http://www.w3.org/2000/svg" viewBox="0 0 24 24" fill="currentColor" aria-hidden="true" data-slot="icon">
  <path fill-rule="evenodd" d="M5.995 2.994a.75.75 0 0 1 .75.75v7.5a5.25 5.25 0 1 0 10.5 0v-7.5a.75.75 0 0 1 1.5 0v7.5a6.75 6.75 0 1 1-13.5 0v-7.5a.75.75 0 0 1 .75-.75Zm-3 17.252a.75.75 0 0 1 .75-.75h16.5a.75.75 0 0 1 0 1.5h-16.5a.75.75 0 0 1-.75-.75Z" clip-rule="evenodd"/>
</svg>
